X:104
T:Toast,The. JC.104
R:Jig
S:John Clare,Poet,Helpston. (1793-1864)
O:England
A:Northamptonshire
Z:vmp.P. Headford
M:6/8
L:1/8
Q:3/8=120
K:G
” crot”D|\
GAG DcB|ABG AFD|GAG DcG cAFG2:|!
|:F|AFD BGF|cAF dBG|AFD BGD|cAFG2:|!
|:” crot”d|gfe dBB|cAA BGG|gfe dBB|gfe dcB|cAFG2:|!
|:d|dBec2A|F2DB2d|dBec2A|FDFG2:|

